X: 17
T: Missa Cuiusvis toni (on D) / Agnus Dei
N: Derived from Ock1004.1e-Missa_Cuiusvis_toni-Agnus-on_D.krn
C: Johannes Ockeghem
%%abc-version 2.0
%%abcx-abcm2ps-target-version 5.9.1 (29 Sep 2008)
%%abc-creator hum2abc beta
%%abcx-conversion-date 2019/02/17 07:26:13
%%abc-edited-by Jesse Rodin
%%abc-edited-by Jesse Rodin 8-24-2012
%%abcx-initial-encoding-date 2012/08/24/
%%humdrum-veritas 341628542
%%humdrum-veritas-data 3798570881
%%linebreak <none>
%%barnumbers 0
L: 1/4
M: 3/1
Q: 1/2=120
%%staves [1 2 3 4]
V: 1 clef=treble
V: 2 clef=treble-8
V: 3 clef=treble-8
V: 4 clef=bass
K: F
[V:1] D4F2G2B3A | 
[V:2] d6e2d2g2- | 
[V:3] z12 | 
[V:4] z12 | 
[V:1] B2A4F2G3E | 
[V:2] g2f2d4e4 | 
[V:3] z4z4C4 | 
[V:4] z12 | 
[V:1] F2A3GG4^F2 | 
[V:2] d4G4A4 | 
[V:3] D4E4D4 | 
[V:4] z12 | 
[V:1] G4z4B4- | 
[V:2] G2d2_e2d4g2- | 
[V:3] G12 | 
[V:4] G,,4C,2B,,2G,,4 | 
[V:1] B2A3dd4c2 | 
[V:2] g2f2d4e4 | 
[V:3] E2F2A2B2G4 | 
[V:4] z2D,4B,,2C,3A,, | 
[V:1] d4B8 | 
[V:2] d8z2G2 | 
[V:3] z2F2G3FD4 | 
[V:4] B,,4z2G,,4G,,2 | 
[V:1] A4G4F4 | 
[V:2] c3de4d4- | 
[V:3] F4E2C2D2F2- | 
[V:4] A,,3B,,C,4z2D,2- | 
[V:1] B4A2F2G3A | 
[V:2] d4z2d2B3c | 
[V:3] F2G2A4G4 | 
[V:4] D,2B,,2C,2D,2_E,4 | 
[V:1] B4A2F2G2E2 | 
[V:2] d4c4z2B2- | 
[V:3] F3GA4B2G2- | 
[V:4] D,2B,,2C,2A,,2G,,4 | 
[V:1] D4z4z4 | 
[V:2] B2G2F2A4c2 | 
[V:3] GFD4E4F2 | 
[V:4] B,,4D,2C,2A,,4 | 
[V:1] z12 | 
[V:2] B2A3GG4^F2 | 
[V:3] D2E4D4C2 | 
[V:4] B,,2C,2G,,4A,,4 | 
[V:1] B,4C2D4B,2 | 
[V:2] G6A2B2G2 | 
[V:3] D4E2D2G4 | 
[V:4] G,,4z4G,,4 | 
[V:1] A,2D4E2D2G2- | 
[V:2] A4B2G2z2d2 | 
[V:3] F4G2E2F2G2 | 
[V:4] D,4B,,2C,2D,2G,,2 | 
[V:1] G2F2G2A4G2 | 
[V:2] c2A2B2cA2G/F/E2 | 
[V:3] A4G2F2E4 | 
[V:4] z2D,2B,,2A,,2C,4 | 
[V:1] F2E3DD4^C2 | 
[V:2] F2A4F2G4 | 
[V:3] D2C2D4E4 | 
[V:4] D,2A,,2D,4z4 | 
[V:1] D12 ||  
[V:2] A12 ||  
[V:3] D12 ||  
[V:4] D,12 ||  
[V:1]  [K:F] [K:clef=treble][M:2/1]z8 | 
[V:2]  [K:F] [K:clef=treble-8][M:2/1]A8 | 
[V:3]  [K:F] [K:clef=treble-8][M:2/1]F8 | 
[V:4]  [K:F] [K:clef=bass][M:2/1]D,8 | 
[V:1] z8 | 
[V:2] B4A4 | 
[V:3] G4F4 | 
[V:4] G,,4D,4 | 
[V:1] z8 | 
[V:2] D4A4 | 
[V:3] G4E4 | 
[V:4] B,,4C,4 | 
[V:1] z8 | 
[V:2] B4c4 | 
[V:3] F4E4 | 
[V:4] D,4A,,4 | 
[V:1] z8 | 
[V:2] A2B2A2d2- | 
[V:3] F4D4 | 
[V:4] D,4F,4 | 
[V:1] z8 | 
[V:2] d2^c2^c2=B2 | 
[V:3] G8 | 
[V:4] E,8 | 
[V:1] z8 | 
[V:2] d8 | 
[V:3] A6B2 | 
[V:4] D,8 | 
[V:1] z8 | 
[V:2] z8 | 
[V:3] c4B4- | 
[V:4] _E,4D,4 | 
[V:1] z8 | 
[V:2] z8 | 
[V:3] B2G2F4 | 
[V:4] G,,4D,4 | 
[V:1] z8 | 
[V:2] z8 | 
[V:3] G4A4 | 
[V:4] E,4F,4 | 
[V:1] z8 | 
[V:2] z8 | 
[V:3] B8 | 
[V:4] D,2E,2D,2G,2- | 
[V:1] z8 | 
[V:2] z8 | 
[V:3] A8 | 
[V:4] G,2^F,2F,2E,2 | 
[V:1] z8 | 
[V:2] z8 | 
[V:3] G8 | 
[V:4] G,8 | 
[V:1] D8 | 
[V:2] B8 | 
[V:3] G8 | 
[V:4] G,,8 | 
[V:1] D4D4 | 
[V:2] B4B4 | 
[V:3] G4G4 | 
[V:4] G,,4G,,4 | 
[V:1] D4_E4- | 
[V:2] B4c4- | 
[V:3] G4G4- | 
[V:4] G,,4C,4- | 
[V:1] E4D4 | 
[V:2] c2A2B4 | 
[V:3] G2E2F4 | 
[V:4] C,4B,,4 | 
[V:1] D6B,2 | 
[V:2] B8 | 
[V:3] G8 | 
[V:4] G,,8 | 
[V:1] C6D2 | 
[V:2] A8 | 
[V:3] E8 | 
[V:4] A,,6B,,2 | 
[V:1] E4F2D2 | 
[V:2] G4F4 | 
[V:3] z4A4 | 
[V:4] C,4D,4 | 
[V:1] E2D4G2 | 
[V:2] B6A2- | 
[V:3] G6E2 | 
[V:4] G,,4B,,2C,2 | 
[V:1] A2F2G4 | 
[V:2] A4G4 | 
[V:3] F4B4 | 
[V:4] A,,2D,2z2G,2 | 
[V:1] F3GA4 | 
[V:2] z2c6 | 
[V:3] A6G2 | 
[V:4] A,2F,4E,2 | 
[V:1] z2D6 | 
[V:2] B6A2- | 
[V:3] G4z4 | 
[V:4] G,6F,2 | 
[V:1] E4F2D2- | 
[V:2] AGFED4 | 
[V:3] c4B4- | 
[V:4] E,2C,2D,2G,,2 | 
[V:1] D2C2A,4 | 
[V:2] G2E2F4 | 
[V:3] B2A3GFE | 
[V:4] B,,2C,2D,4 | 
[V:1] B,4z4 | 
[V:2] G2F2D2E2 | 
[V:3] D4G2FG | 
[V:4] G,,2B,,4C,2 | 
[V:1] C4B,4 | 
[V:2] C4D4 | 
[V:3] F3EG4 | 
[V:4] A,,4G,,4 | 
[V:1] C2D4B,2 | 
[V:2] z4D4 | 
[V:3] E2D2G4 | 
[V:4] A,,2B,,2G,,4 | 
[V:1] A,4D2C2 | 
[V:2] C4D2E2 | 
[V:3] F4G2A2- | 
[V:4] A,,4B,,2A,,2- | 
[V:1] F2E2F2E2- | 
[V:2] C2c2B2c2- | 
[V:3] A2G2F2G2 | 
[V:4] A,,2C,2D,2C,2 | 
[V:1] EDD4^C2 | 
[V:2] cB/A/A4G2 | 
[V:3] D4E4 | 
[V:4] D,4z4 | 
[V:1] D8 |]  
[V:2] A8 |]  
[V:3] D8 |]  
[V:4] D,8 |]  



